X:130
M:6/8
L:1/8
Q:3/8=120
K:G
|:d|g2 g aga| b2 g g2 d|ded dcB|A2 D D2 d|\
g2 g aga| b2 g g2 d|dcB AGF|G2 G G2 :|

